X: 1
T: Sir Ulick Burk
B: A COLECTION of the most Celebrated Irish Tunes2 p.5a
M: C|
L: 1/8
K: Dm
|:\
dcde f2(ed) | (cd)(cA)  G2FE | F2FD FGAB | AGA^C DEFG |
F2 (F/G/A) G2G2 | AGAd c3c | dcde fgfe | (ed)(dc) A4 |
c2 (c/d/e) d2 (e/f/g) | (fe)(dc) A2(GF) | c2 (B/c/d) (cA)(FA) | (GF)(ED) D4 :|
|:\
A,DDC DEFD | EDEC EFGE | F2c2 cdcG | A2d2 d4 |
fefg (f/g/a) (gf) | edef (e/f/g) (fe) | dcde fefg | A2 (F/G/A) G4 |
cAAd c2c2 | d2 (e/f/g) fe(dc) | AGAF (cA)(dA) | (GF)ED D4 :|
